svg/submit-for-approval.svg

<?xml version="1.0" encoding="UTF-8"?>
<svg xmlns="http://www.w3.org/2000/svg" xmlns:xlink="http://www.w3.org/1999/xlink" width="32" height="32" viewBox="0 0 32 32">
<path fill-rule="nonzero" fill="rgb(0%, 0%, 0%)" fill-opacity="1" d="M 29.871094 15.527344 L 15.152344 2.085938 C 14.960938 1.917969 14.691406 1.875 14.460938 1.976562 C 14.230469 2.078125 14.082031 2.308594 14.078125 2.558594 L 14.078125 7.679688 L 2.558594 7.679688 C 2.386719 7.679688 2.226562 7.746094 2.105469 7.867188 C 1.988281 7.988281 1.921875 8.148438 1.921875 8.320312 L 1.921875 23.679688 C 1.921875 23.847656 1.988281 24.011719 2.105469 24.132812 C 2.226562 24.253906 2.390625 24.320312 2.558594 24.320312 L 14.078125 24.320312 L 14.078125 29.441406 C 14.082031 29.695312 14.230469 29.921875 14.464844 30.023438 C 14.695312 30.125 14.964844 30.082031 15.152344 29.914062 L 29.871094 16.472656 C 30.003906 16.351562 30.082031 16.179688 30.082031 16 C 30.082031 15.820312 30.003906 15.648438 29.871094 15.527344 M 19.042969 12.578125 L 12.964844 19.617188 C 12.851562 19.75 12.691406 19.828125 12.519531 19.839844 L 12.480469 19.839844 C 12.320312 19.839844 12.167969 19.78125 12.050781 19.671875 L 8.527344 16.472656 C 8.292969 16.226562 8.285156 15.84375 8.511719 15.59375 C 8.742188 15.34375 9.125 15.3125 9.390625 15.527344 L 12.425781 18.285156 L 18.074219 11.742188 C 18.183594 11.613281 18.34375 11.535156 18.511719 11.519531 C 18.679688 11.507812 18.847656 11.5625 18.976562 11.675781 C 19.246094 11.90625 19.273438 12.308594 19.042969 12.578125 "/>
</svg>

<svg role="img" viewBox="0 0 32 32" height="32" width="32" xmlns="http://www.w3.org/2000/svg"><path d="M29.871 15.527 15.152 2.086a.65.65 0 0 0-.691-.11.648.648 0 0 0-.383.583v5.12H2.558a.635.635 0 0 0-.636.641v15.36c0 .168.066.332.183.453a.642.642 0 0 0 .454.187h11.52v5.121a.644.644 0 0 0 1.073.473l14.72-13.441a.642.642 0 0 0 .21-.473.642.642 0 0 0-.21-.473m-10.829-2.949-6.078 7.04a.64.64 0 0 1-.445.222h-.04a.619.619 0 0 1-.43-.168l-3.523-3.2a.645.645 0 0 1-.015-.878.643.643 0 0 1 .879-.067l3.035 2.758 5.648-6.543a.638.638 0 0 1 .903-.066c.27.23.296.633.066.902"/></svg>
